flaticon/security/target.svg

<svg xmlns="http://www.w3.org/2000/svg" width="32" height="32" viewBox="0 0 24 24">
    <path d="M.398438 7.601562C.621094 7.601562.800781 7.421875.800781 7.199219L.800781.800781 7.199219.800781C7.421875.800781 7.601562.621094 7.601562.398438 7.601562.179688 7.421875 0 7.199219 0L0 0 0 7.199219C0 7.421875.179688 7.601562.398438 7.601562zM23.601562 16.800781C23.378906 16.800781 23.199219 16.980469 23.199219 17.199219L23.199219 23.199219 17.199219 23.199219C16.980469 23.199219 16.800781 23.378906 16.800781 23.601562 16.800781 23.820312 16.980469 24 17.199219 24L24 24 24 17.199219C24 16.980469 23.820312 16.800781 23.601562 16.800781zM17.199219 0C16.980469 0 16.800781.179688 16.800781.398438 16.800781.621094 16.980469.800781 17.199219.800781L23.199219.800781 23.199219 7.199219C23.199219 7.421875 23.378906 7.601562 23.601562 7.601562 23.820312 7.601562 24 7.421875 24 7.199219L24 0zM7.199219 23.199219L.800781 23.199219.800781 17.199219C.800781 16.980469.621094 16.800781.398438 16.800781.179688 16.800781 0 16.980469 0 17.199219L0 24 7.199219 24C7.421875 24 7.601562 23.820312 7.601562 23.601562 7.601562 23.378906 7.421875 23.199219 7.199219 23.199219zM17.601562 12.398438C17.820312 12.398438 18 12.222656 18 12 18 11.777344 17.820312 11.601562 17.601562 11.601562L12.398438 11.601562 12.398438 6.398438C12.398438 6.179688 12.222656 6 12 6 11.777344 6 11.601562 6.179688 11.601562 6.398438L11.601562 11.601562 6.398438 11.601562C6.179688 11.601562 6 11.777344 6 12 6 12.222656 6.179688 12.398438 6.398438 12.398438L11.601562 12.398438 11.601562 17.601562C11.601562 17.820312 11.777344 18 12 18 12.222656 18 12.398438 17.820312 12.398438 17.601562L12.398438 12.398438zM17.601562 12.398438"/>
</svg>

<svg xmlns="http://www.w3.org/2000/svg" width="32" height="32" viewBox="0 0 24 24">
    <path d="M.398 7.602c.223 0 .403-.18.403-.403V.801h6.398a.401.401 0 0 0 0-.8L0-.001v7.2c0 .222.18.402.398.402zm0 0M23.602 16.8a.401.401 0 0 0-.403.4v6h-6a.401.401 0 0 0 0 .8H24v-6.8a.4.4 0 0 0-.398-.4zm0 0M17.2 0a.4.4 0 0 0 0 .8h6v6.4a.401.401 0 0 0 .8 0V0zm0 0M7.2 23.2H.8v-6a.401.401 0 0 0-.8 0V24h7.2a.401.401 0 1 0 0-.8zm0 0M17.602 12.398a.398.398 0 1 0 0-.796h-5.204V6.398a.398.398 0 1 0-.796 0v5.204H6.398a.398.398 0 1 0 0 .796h5.204v5.204a.398.398 0 1 0 .796 0v-5.204zm0 0"/>
</svg>
